src/images/svg/linkedin.svg

<svg height="26" viewBox="0 0 28 26" width="28" xmlns="http://www.w3.org/2000/svg"><path d="m10 8h5.535v2.837h.079c.77-1.381 2.655-2.837 5.464-2.837 5.842 0 6.922 3.637 6.922 8.367v9.633h-5.769v-8.54c0-2.037-.042-4.657-3.001-4.657-3.005 0-3.463 2.218-3.463 4.509v8.688h-5.767z"/><path d="m0 8h6v18h-6z"/><path d="m6 3c0 1.657-1.343 3-3 3s-3-1.343-3-3 1.343-3 3-3 3 1.343 3 3z"/></svg>

<?xml version="1.0" encoding="UTF-8"?>
<svg width="28px" height="26px" viewBox="0 0 28 26" version="1.1" xmlns="http://www.w3.org/2000/svg" xmlns:xlink="http://www.w3.org/1999/xlink">
    <title>linkedin</title>
                    <path d="M10,8 L15.535,8 L15.535,10.837 L15.614,10.837 C16.384,9.456 18.269,8 21.078,8 C26.92,8 28,11.637 28,16.367 L28,26 L22.231,26 L22.231,17.46 C22.231,15.423 22.189,12.803 19.23,12.803 C16.225,12.803 15.767,15.021 15.767,17.312 L15.767,26 L10,26 L10,8 Z" id="Path"></path>
                    <polygon id="Path" points="0 8 6 8 6 26 0 26"></polygon>
                    <path d="M6,3 C6,4.657 4.657,6 3,6 C1.343,6 0,4.657 0,3 C0,1.343 1.343,0 3,0 C4.657,0 6,1.343 6,3 Z" id="Path"></path>
</svg>
